documentation/public/assets/images/chips.svg

<svg width="173" height="32" viewBox="0 0 173 32" fill="none" xmlns="http://www.w3.org/2000/svg">
<rect x="0.5" y="0.5" width="172" height="31" rx="3.5" fill="#F0F6FE"/>
<path d="M21.7487 21.7941L21.7317 21.7899H21.6702C21.6063 21.7899 21.5502 21.7337 21.5502 21.6699C21.5502 21.0975 21.3043 20.6805 20.9063 20.3535C20.5455 20.0571 20.0385 19.8185 19.4892 19.5657L19.4876 19.5649C18.7898 19.2468 18.0984 18.931 17.5937 18.4263C17.4745 18.3071 17.4368 18.2177 17.424 18.1635C17.4113 18.1096 17.4144 18.0532 17.437 17.9855C17.4902 17.8258 17.6219 17.6755 17.757 17.5296L17.7583 17.5283C17.9636 17.3075 18.2604 16.9885 18.4951 16.4735C18.7301 15.958 18.8902 15.2773 18.8902 14.3299C18.8902 13.0685 18.6054 12.2282 18.0736 11.7151C17.5406 11.2008 16.8662 11.1199 16.3502 11.1199C15.8341 11.1199 15.1597 11.2008 14.6267 11.7151C14.0949 12.2282 13.8102 13.0685 13.8102 14.3299C13.8102 15.2773 13.9702 15.958 14.2052 16.4735C14.44 16.9885 14.7367 17.3075 14.9421 17.5283L14.9433 17.5296C14.9434 17.5297 14.9435 17.5298 14.9436 17.5299C15.0786 17.6757 15.2101 17.8259 15.2633 17.9855C15.2859 18.0532 15.2891 18.1096 15.2763 18.1635C15.2635 18.2177 15.2259 18.3071 15.1066 18.4263C14.6021 18.9308 13.9111 19.2466 13.2136 19.5645C12.6639 19.8126 12.1561 20.0486 11.794 20.346C11.394 20.6747 11.1502 21.0948 11.1502 21.6699C11.1502 21.7385 11.0993 21.7899 11.0302 21.7899C10.9663 21.7899 10.9102 21.7337 10.9102 21.6699C10.9102 21.0126 11.1764 20.5727 11.5748 20.2233C11.9967 19.8534 12.5525 19.5967 13.1253 19.3359C13.6524 19.1016 14.2676 18.8259 14.7393 18.4348L15.1449 18.0985L14.7878 17.711L14.784 17.7069C14.5538 17.4571 14.2656 17.1444 14.0253 16.6399C13.7842 16.1336 13.5802 15.4081 13.5802 14.3399C13.5802 12.7231 14.06 11.8928 14.5849 11.4532C15.1269 10.9994 15.8134 10.8799 16.3702 10.8799C16.9283 10.8799 17.6144 10.9975 18.1558 11.4498C18.68 11.8878 19.1602 12.7175 19.1602 14.3399C19.1602 15.4082 18.9561 16.1364 18.7148 16.644C18.4734 17.1521 18.1831 17.4656 17.9558 17.7074L17.5923 18.0942L18.0001 18.434C18.4748 18.8296 19.0804 19.1038 19.5917 19.3353L19.6129 19.3449C19.6131 19.345 19.6132 19.3451 19.6134 19.3451C20.1868 19.6062 20.7432 19.863 21.1655 20.2333C21.5639 20.5827 21.8302 21.0226 21.8302 21.6799C21.8302 21.7349 21.7974 21.7789 21.7487 21.7941Z" fill="#0F67F5" stroke="#0F67F5"/>
<path d="M29.6506 21H28.358L32.0966 10.8182H33.3693L37.108 21H35.8153L32.7727 12.429H32.6932L29.6506 21ZM30.1278 17.0227H35.3381V18.1165H30.1278V17.0227ZM41.3773 13.3636V14.358H37.4199V13.3636H41.3773ZM38.5733 11.5341H39.7466V18.8125C39.7466 19.1439 39.7947 19.3925 39.8908 19.5582C39.9902 19.7206 40.1162 19.83 40.2686 19.8864C40.4244 19.9394 40.5885 19.9659 40.7608 19.9659C40.8901 19.9659 40.9962 19.9593 41.079 19.946C41.1619 19.9295 41.2282 19.9162 41.2779 19.9062L41.5165 20.9602C41.437 20.9901 41.3259 21.0199 41.1834 21.0497C41.0409 21.0829 40.8603 21.0994 40.6415 21.0994C40.3101 21.0994 39.9853 21.0282 39.6671 20.8857C39.3522 20.7431 39.0904 20.526 38.8816 20.2344C38.6761 19.9427 38.5733 19.5748 38.5733 19.1307V11.5341ZM46.1625 21.1591C45.4731 21.1591 44.8682 20.995 44.3478 20.6669C43.8308 20.3388 43.4264 19.8797 43.1348 19.2898C42.8464 18.6998 42.7022 18.0104 42.7022 17.2216C42.7022 16.4261 42.8464 15.7318 43.1348 15.1385C43.4264 14.5452 43.8308 14.0845 44.3478 13.7564C44.8682 13.4283 45.4731 13.2642 46.1625 13.2642C46.8519 13.2642 47.4551 13.4283 47.9721 13.7564C48.4925 14.0845 48.8968 14.5452 49.1852 15.1385C49.4769 15.7318 49.6227 16.4261 49.6227 17.2216C49.6227 18.0104 49.4769 18.6998 49.1852 19.2898C48.8968 19.8797 48.4925 20.3388 47.9721 20.6669C47.4551 20.995 46.8519 21.1591 46.1625 21.1591ZM46.1625 20.1051C46.6861 20.1051 47.117 19.9709 47.4551 19.7024C47.7931 19.4339 48.0434 19.081 48.2058 18.6435C48.3682 18.206 48.4494 17.732 48.4494 17.2216C48.4494 16.7112 48.3682 16.2356 48.2058 15.7947C48.0434 15.3539 47.7931 14.9976 47.4551 14.7259C47.117 14.4541 46.6861 14.3182 46.1625 14.3182C45.6388 14.3182 45.2079 14.4541 44.8699 14.7259C44.5318 14.9976 44.2815 15.3539 44.1191 15.7947C43.9567 16.2356 43.8755 16.7112 43.8755 17.2216C43.8755 17.732 43.9567 18.206 44.1191 18.6435C44.2815 19.081 44.5318 19.4339 44.8699 19.7024C45.2079 19.9709 45.6388 20.1051 46.1625 20.1051ZM58.6722 13.3636V14.358H54.7148V13.3636H58.6722ZM55.8683 11.5341H57.0415V18.8125C57.0415 19.1439 57.0896 19.3925 57.1857 19.5582C57.2852 19.7206 57.4111 19.83 57.5636 19.8864C57.7193 19.9394 57.8834 19.9659 58.0558 19.9659C58.185 19.9659 58.2911 19.9593 58.3739 19.946C58.4568 19.9295 58.5231 19.9162 58.5728 19.9062L58.8114 20.9602C58.7319 20.9901 58.6209 21.0199 58.4783 21.0497C58.3358 21.0829 58.1552 21.0994 57.9364 21.0994C57.605 21.0994 57.2802 21.0282 56.962 20.8857C56.6471 20.7431 56.3853 20.526 56.1765 20.2344C55.971 19.9427 55.8683 19.5748 55.8683 19.1307V11.5341ZM61.7745 16.4062V21H60.6012V10.8182H61.7745V14.5568H61.8739C62.0529 14.1624 62.3214 13.8492 62.6793 13.6172C63.0406 13.3819 63.5212 13.2642 64.1211 13.2642C64.6415 13.2642 65.0972 13.3686 65.4883 13.5774C65.8794 13.7829 66.1826 14.0994 66.3981 14.527C66.6168 14.9512 66.7262 15.4915 66.7262 16.1477V21H65.5529V16.2273C65.5529 15.6207 65.3955 15.1518 65.0806 14.8203C64.7691 14.4856 64.3365 14.3182 63.783 14.3182C63.3986 14.3182 63.0539 14.3994 62.7489 14.5618C62.4473 14.7242 62.2087 14.9612 62.033 15.2727C61.8607 15.5843 61.7745 15.9621 61.7745 16.4062ZM72.0744 21.1591C71.3386 21.1591 70.7039 20.9967 70.1703 20.6719C69.64 20.3438 69.2306 19.8864 68.9423 19.2997C68.6573 18.7098 68.5147 18.0237 68.5147 17.2415C68.5147 16.4593 68.6573 15.7699 68.9423 15.1733C69.2306 14.5734 69.6317 14.1061 70.1454 13.7713C70.6625 13.4332 71.2657 13.2642 71.9551 13.2642C72.3528 13.2642 72.7456 13.3305 73.1333 13.4631C73.5211 13.5956 73.8741 13.8111 74.1923 14.1094C74.5105 14.4044 74.764 14.7955 74.9529 15.2827C75.1419 15.7699 75.2363 16.3698 75.2363 17.0824V17.5795H69.35V16.5653H74.0431C74.0431 16.1345 73.957 15.75 73.7846 15.4119C73.6156 15.0739 73.3736 14.8071 73.0588 14.6115C72.7472 14.416 72.3793 14.3182 71.9551 14.3182C71.4877 14.3182 71.0834 14.4342 70.742 14.6662C70.4039 14.8949 70.1438 15.1932 69.9615 15.5611C69.7792 15.929 69.688 16.3234 69.688 16.7443V17.4205C69.688 17.9972 69.7875 18.486 69.9863 18.8871C70.1885 19.2848 70.4686 19.5881 70.8265 19.7969C71.1845 20.0024 71.6004 20.1051 72.0744 20.1051C72.3826 20.1051 72.661 20.062 72.9096 19.9759C73.1615 19.8864 73.3786 19.7538 73.5609 19.5781C73.7432 19.3991 73.8841 19.1771 73.9835 18.9119L75.117 19.2301C74.9977 19.6146 74.7972 19.9527 74.5154 20.2443C74.2337 20.5327 73.8857 20.758 73.4714 20.9205C73.0571 21.0795 72.5914 21.1591 72.0744 21.1591ZM86.6859 13.3636C86.6262 12.8598 86.3843 12.4688 85.96 12.1903C85.5358 11.9119 85.0154 11.7727 84.399 11.7727C83.9482 11.7727 83.5538 11.8456 83.2157 11.9915C82.881 12.1373 82.6191 12.3378 82.4302 12.593C82.2446 12.8482 82.1518 13.1383 82.1518 13.4631C82.1518 13.7348 82.2164 13.9685 82.3457 14.1641C82.4783 14.3563 82.6473 14.517 82.8528 14.6463C83.0583 14.7723 83.2737 14.8767 83.4991 14.9595C83.7245 15.0391 83.9316 15.1037 84.1206 15.1534L85.1547 15.4318C85.4198 15.5014 85.7148 15.5975 86.0396 15.7202C86.3677 15.8428 86.6809 16.0102 86.9792 16.2223C87.2808 16.4311 87.5294 16.6996 87.725 17.0277C87.9205 17.3558 88.0183 17.7585 88.0183 18.2358C88.0183 18.786 87.8741 19.2831 87.5858 19.7273C87.3007 20.1714 86.8831 20.5244 86.3329 20.7862C85.786 21.0481 85.1215 21.179 84.3393 21.179C83.6101 21.179 82.9788 21.0613 82.4451 20.826C81.9148 20.5907 81.4972 20.2625 81.1923 19.8416C80.8907 19.4207 80.72 18.9318 80.6802 18.375H81.9529C81.9861 18.7595 82.1154 19.0777 82.3407 19.3295C82.5694 19.5781 82.8578 19.7637 83.2058 19.8864C83.5571 20.0057 83.935 20.0653 84.3393 20.0653C84.81 20.0653 85.2325 19.9891 85.6071 19.8366C85.9816 19.6809 86.2782 19.4654 86.497 19.1903C86.7157 18.9119 86.8251 18.5871 86.8251 18.2159C86.8251 17.8778 86.7306 17.6027 86.5417 17.3906C86.3528 17.1785 86.1042 17.0062 85.796 16.8736C85.4877 16.741 85.1547 16.625 84.7967 16.5256L83.5439 16.1676C82.7484 15.9389 82.1187 15.6125 81.6547 15.1882C81.1906 14.764 80.9586 14.2088 80.9586 13.5227C80.9586 12.9527 81.1127 12.4555 81.421 12.0312C81.7325 11.6037 82.1502 11.2723 82.6738 11.0369C83.2008 10.7983 83.7891 10.679 84.4387 10.679C85.095 10.679 85.6783 10.7966 86.1887 11.032C86.6992 11.264 87.1035 11.5821 87.4018 11.9865C87.7034 12.3909 87.8625 12.8499 87.8791 13.3636H86.6859ZM93.2074 13.3636V14.358H89.25V13.3636H93.2074ZM90.4034 11.5341H91.5767V18.8125C91.5767 19.1439 91.6248 19.3925 91.7209 19.5582C91.8203 19.7206 91.9463 19.83 92.0987 19.8864C92.2545 19.9394 92.4186 19.9659 92.5909 19.9659C92.7202 19.9659 92.8262 19.9593 92.9091 19.946C92.992 19.9295 93.0582 19.9162 93.108 19.9062L93.3466 20.9602C93.267 20.9901 93.156 21.0199 93.0135 21.0497C92.871 21.0829 92.6903 21.0994 92.4716 21.0994C92.1402 21.0994 91.8153 21.0282 91.4972 20.8857C91.1823 20.7431 90.9205 20.526 90.7116 20.2344C90.5062 19.9427 90.4034 19.5748 90.4034 19.1307V11.5341ZM99.7848 17.8778V13.3636H100.958V21H99.7848V19.7074H99.7053C99.5263 20.0952 99.2479 20.425 98.87 20.6967C98.4922 20.9652 98.0149 21.0994 97.4382 21.0994C96.9609 21.0994 96.5367 20.995 96.1655 20.7862C95.7943 20.5741 95.5026 20.2559 95.2905 19.8317C95.0784 19.4041 94.9723 18.8655 94.9723 18.2159V13.3636H96.1456V18.1364C96.1456 18.6932 96.3014 19.1373 96.6129 19.4688C96.9278 19.8002 97.3288 19.9659 97.8161 19.9659C98.1077 19.9659 98.4044 19.8913 98.706 19.7422C99.0109 19.593 99.2661 19.3643 99.4716 19.0561C99.6804 18.7479 99.7848 18.3551 99.7848 17.8778ZM105.991 21.1591C105.354 21.1591 104.792 20.9983 104.305 20.6768C103.818 20.352 103.437 19.8946 103.162 19.3047C102.887 18.7114 102.749 18.0104 102.749 17.2017C102.749 16.3996 102.887 15.7036 103.162 15.1136C103.437 14.5237 103.82 14.0679 104.31 13.7464C104.801 13.425 105.367 13.2642 106.01 13.2642C106.508 13.2642 106.9 13.3471 107.189 13.5128C107.48 13.6752 107.702 13.8608 107.855 14.0696C108.011 14.2751 108.132 14.4441 108.218 14.5767H108.317V10.8182H109.491V21H108.357V19.8267H108.218C108.132 19.9659 108.009 20.1416 107.85 20.3537C107.691 20.5625 107.464 20.7498 107.169 20.9155C106.874 21.0779 106.481 21.1591 105.991 21.1591ZM106.15 20.1051C106.62 20.1051 107.018 19.9825 107.343 19.7372C107.668 19.4886 107.915 19.1456 108.084 18.7081C108.253 18.2673 108.337 17.7585 108.337 17.1818C108.337 16.6117 108.254 16.1129 108.089 15.6854C107.923 15.2545 107.678 14.9197 107.353 14.6811C107.028 14.4392 106.627 14.3182 106.15 14.3182C105.653 14.3182 105.238 14.4458 104.907 14.701C104.579 14.9529 104.332 15.2959 104.166 15.7301C104.004 16.161 103.922 16.6449 103.922 17.1818C103.922 17.7254 104.005 18.2192 104.171 18.6634C104.34 19.1042 104.589 19.4555 104.917 19.7173C105.248 19.9759 105.659 20.1051 106.15 20.1051ZM115.004 21.1591C114.268 21.1591 113.634 20.9967 113.1 20.6719C112.57 20.3438 112.16 19.8864 111.872 19.2997C111.587 18.7098 111.444 18.0237 111.444 17.2415C111.444 16.4593 111.587 15.7699 111.872 15.1733C112.16 14.5734 112.561 14.1061 113.075 13.7713C113.592 13.4332 114.195 13.2642 114.885 13.2642C115.282 13.2642 115.675 13.3305 116.063 13.4631C116.451 13.5956 116.804 13.8111 117.122 14.1094C117.44 14.4044 117.694 14.7955 117.883 15.2827C118.072 15.7699 118.166 16.3698 118.166 17.0824V17.5795H112.28V16.5653H116.973C116.973 16.1345 116.887 15.75 116.714 15.4119C116.545 15.0739 116.303 14.8071 115.988 14.6115C115.677 14.416 115.309 14.3182 114.885 14.3182C114.417 14.3182 114.013 14.4342 113.672 14.6662C113.334 14.8949 113.073 15.1932 112.891 15.5611C112.709 15.929 112.618 16.3234 112.618 16.7443V17.4205C112.618 17.9972 112.717 18.486 112.916 18.8871C113.118 19.2848 113.398 19.5881 113.756 19.7969C114.114 20.0024 114.53 20.1051 115.004 20.1051C115.312 20.1051 115.591 20.062 115.839 19.9759C116.091 19.8864 116.308 19.7538 116.491 19.5781C116.673 19.3991 116.814 19.1771 116.913 18.9119L118.047 19.2301C117.927 19.6146 117.727 19.9527 117.445 20.2443C117.163 20.5327 116.815 20.758 116.401 20.9205C115.987 21.0795 115.521 21.1591 115.004 21.1591ZM121.124 16.4062V21H119.951V13.3636H121.084V14.5568H121.184C121.363 14.169 121.635 13.8575 121.999 13.6222C122.364 13.3835 122.834 13.2642 123.411 13.2642C123.928 13.2642 124.381 13.3703 124.768 13.5824C125.156 13.7912 125.458 14.1094 125.673 14.5369C125.889 14.9612 125.996 15.4981 125.996 16.1477V21H124.823V16.2273C124.823 15.6274 124.667 15.16 124.356 14.8253C124.044 14.4872 123.617 14.3182 123.073 14.3182C122.698 14.3182 122.364 14.3994 122.069 14.5618C121.777 14.7242 121.547 14.9612 121.378 15.2727C121.209 15.5843 121.124 15.9621 121.124 16.4062ZM131.461 13.3636V14.358H127.504V13.3636H131.461ZM128.657 11.5341H129.831V18.8125C129.831 19.1439 129.879 19.3925 129.975 19.5582C130.074 19.7206 130.2 19.83 130.353 19.8864C130.508 19.9394 130.672 19.9659 130.845 19.9659C130.974 19.9659 131.08 19.9593 131.163 19.946C131.246 19.9295 131.312 19.9162 131.362 19.9062L131.6 20.9602C131.521 20.9901 131.41 21.0199 131.267 21.0497C131.125 21.0829 130.944 21.0994 130.725 21.0994C130.394 21.0994 130.069 21.0282 129.751 20.8857C129.436 20.7431 129.174 20.526 128.966 20.2344C128.76 19.9427 128.657 19.5748 128.657 19.1307V11.5341Z" fill="#0F67F5"/>
<path d="M153.123 16.3061L152.77 15.9525L152.416 16.3061L149.086 19.6361C149.066 19.6562 149.036 19.6696 149 19.6696C148.964 19.6696 148.934 19.6562 148.913 19.6361C148.893 19.616 148.88 19.586 148.88 19.5496C148.88 19.5133 148.893 19.4833 148.913 19.4632L152.243 16.1332L152.597 15.7796L152.243 15.4261L148.913 12.0961C148.893 12.076 148.88 12.046 148.88 12.0096C148.88 11.9733 148.893 11.9433 148.913 11.9232C148.934 11.9031 148.964 11.8896 149 11.8896C149.036 11.8896 149.066 11.9031 149.086 11.9232L152.416 15.2532L152.77 15.6068L153.123 15.2532L156.453 11.9232C156.474 11.9031 156.504 11.8896 156.54 11.8896C156.576 11.8896 156.606 11.9031 156.626 11.9232C156.646 11.9433 156.66 11.9733 156.66 12.0096C156.66 12.046 156.646 12.076 156.626 12.0961L153.296 15.4261L152.943 15.7796L153.296 16.1332L156.626 19.4632C156.646 19.4833 156.66 19.5133 156.66 19.5496C156.66 19.586 156.646 19.616 156.626 19.6361C156.606 19.6562 156.576 19.6696 156.54 19.6696C156.504 19.6696 156.474 19.6562 156.453 19.6361L153.123 16.3061Z" fill="#0F67F5" stroke="#757575"/>
<rect x="0.5" y="0.5" width="172" height="31" rx="3.5" stroke="#0F67F5"/>
</svg>

<svg width="173" height="32" fill="none" xmlns="http://www.w3.org/2000/svg"><rect x=".5" y=".5" width="172" height="31" rx="3.5" fill="#F0F6FE"/><path d="m21.75 21.8-.02-.01h-.06a.12.12 0 0 1-.12-.12c0-.57-.25-.99-.64-1.32-.36-.3-.87-.53-1.42-.78a6.32 6.32 0 0 1-1.9-1.14.57.57 0 0 1-.17-.27.32.32 0 0 1 .02-.17c.05-.16.18-.31.32-.46.2-.22.5-.54.74-1.06.23-.51.39-1.2.39-2.14 0-1.26-.28-2.1-.82-2.61-.53-.52-1.2-.6-1.72-.6s-1.19.08-1.72.6c-.54.5-.82 1.35-.82 2.61 0 .95.16 1.63.4 2.14.23.52.53.84.73 1.06.14.15.27.3.32.46.03.06.03.12.02.17a.57.57 0 0 1-.17.27c-.5.5-1.2.82-1.9 1.13a6.7 6.7 0 0 0-1.42.79c-.4.32-.64.74-.64 1.32 0 .07-.05.12-.12.12a.12.12 0 0 1-.12-.12c0-.66.27-1.1.66-1.45a6.3 6.3 0 0 1 1.56-.88 6.98 6.98 0 0 0 1.6-.9l.41-.34-.35-.39a3.94 3.94 0 0 1-.76-1.07 5.25 5.25 0 0 1-.45-2.3c0-1.62.48-2.45 1-2.89a2.76 2.76 0 0 1 1.79-.57c.56 0 1.24.12 1.79.57.52.44 1 1.27 1 2.89 0 1.07-.2 1.8-.45 2.3-.24.51-.53.83-.75 1.07l-.37.38.41.34c.47.4 1.08.67 1.6.9l.01.01a6.3 6.3 0 0 1 1.56.9c.4.34.66.78.66 1.44 0 .05-.03.1-.08.11Z" fill="#0F67F5" stroke="#0F67F5"/><path d="M29.65 21h-1.3l3.75-10.18h1.27L37.1 21h-1.3l-3.04-8.57h-.08L29.65 21Zm.48-3.98h5.2v1.1h-5.2v-1.1Zm11.25-3.66v1h-3.96v-1h3.96Zm-2.8-1.83h1.17v7.28c0 .33.04.58.14.75.1.16.23.27.38.33.15.05.32.08.5.08a2.07 2.07 0 0 0 .5-.06l.25 1.05a2.37 2.37 0 0 1-.88.14c-.33 0-.65-.07-.97-.21a1.94 1.94 0 0 1-.79-.66 1.9 1.9 0 0 1-.3-1.1v-7.6Zm7.58 9.63a3.2 3.2 0 0 1-1.81-.5 3.34 3.34 0 0 1-1.22-1.37 4.66 4.66 0 0 1-.43-2.07c0-.8.15-1.49.43-2.08a3.3 3.3 0 0 1 3.03-1.88 3.3 3.3 0 0 1 3.02 1.87c.3.6.44 1.3.44 2.1 0 .78-.14 1.47-.43 2.06a3.3 3.3 0 0 1-1.22 1.38 3.3 3.3 0 0 1-1.8.49Zm0-1.05c.53 0 .96-.14 1.3-.4.33-.28.58-.63.75-1.07a4.25 4.25 0 0 0 0-2.85 2.4 2.4 0 0 0-.75-1.06 2 2 0 0 0-1.3-.41 2 2 0 0 0-1.29.4 2.4 2.4 0 0 0-.75 1.07 4.1 4.1 0 0 0-.24 1.43c0 .51.08.99.24 1.42.16.44.41.8.75 1.06.34.27.77.4 1.3.4Zm12.51-6.75v1h-3.96v-1h3.96Zm-2.8-1.83h1.17v7.28c0 .33.05.58.15.75.1.16.22.27.37.33.16.05.32.08.5.08a2.07 2.07 0 0 0 .51-.06l.24 1.05a2.37 2.37 0 0 1-.87.14 2.4 2.4 0 0 1-.98-.21 1.94 1.94 0 0 1-.78-.66 1.9 1.9 0 0 1-.31-1.1v-7.6Zm5.9 4.88V21H60.6V10.82h1.17v3.74h.1c.18-.4.45-.71.8-.94a2.6 2.6 0 0 1 1.45-.36c.52 0 .98.1 1.37.32.39.2.7.52.9.95.23.42.34.96.34 1.62V21h-1.18v-4.77c0-.6-.15-1.08-.47-1.41a1.7 1.7 0 0 0-1.3-.5c-.38 0-.73.08-1.03.24-.3.16-.54.4-.72.71-.17.31-.26.7-.26 1.14Zm10.3 4.75a3.27 3.27 0 0 1-3.13-1.86 4.68 4.68 0 0 1-.43-2.06c0-.78.15-1.47.43-2.07.3-.6.7-1.06 1.2-1.4a3.62 3.62 0 0 1 2.99-.3 2.92 2.92 0 0 1 1.82 1.81 5 5 0 0 1 .29 1.8v.5h-5.89v-1.01h4.7c0-.44-.1-.82-.27-1.16a1.95 1.95 0 0 0-1.82-1.1c-.47 0-.88.12-1.22.36-.34.22-.6.52-.78.9-.18.36-.27.75-.27 1.17v.68c0 .58.1 1.07.3 1.47.2.4.48.7.84.9a2.7 2.7 0 0 0 2.08.19c.25-.1.47-.23.65-.4.18-.18.32-.4.42-.67l1.14.32c-.12.38-.32.72-.6 1.01-.29.3-.63.52-1.05.68-.41.16-.88.24-1.4.24Zm14.62-7.8c-.06-.5-.3-.9-.73-1.17a2.78 2.78 0 0 0-1.56-.42c-.45 0-.85.08-1.18.22-.34.15-.6.35-.79.6a1.44 1.44 0 0 0-.08 1.57c.13.2.3.36.5.49a4.9 4.9 0 0 0 1.27.5l1.03.28a9 9 0 0 1 .89.29c.33.12.64.29.94.5a2.32 2.32 0 0 1 1.04 2.01 2.77 2.77 0 0 1-1.69 2.56c-.54.26-1.2.39-2 .39a4.7 4.7 0 0 1-1.88-.35 2.8 2.8 0 0 1-1.76-2.45h1.26c.04.38.17.7.4.95.22.25.5.43.86.56.35.12.73.18 1.13.18.47 0 .9-.08 1.27-.23.37-.16.67-.37.89-.65.22-.28.33-.6.33-.97 0-.34-.1-.62-.29-.83a2.08 2.08 0 0 0-.74-.52 7.34 7.34 0 0 0-1-.34l-1.26-.36a4.66 4.66 0 0 1-1.89-.98c-.46-.43-.7-.98-.7-1.67 0-.57.16-1.06.47-1.49a3.1 3.1 0 0 1 1.25-1 4.23 4.23 0 0 1 1.77-.35c.66 0 1.24.12 1.75.35.5.23.91.55 1.21.96.3.4.46.86.48 1.37h-1.2Zm6.52 0v1h-3.96v-1h3.96Zm-2.8-1.83h1.17v7.28c0 .33.04.58.14.75.1.16.23.27.38.33.15.05.32.08.5.08l.3-.02.2-.04.25 1.05a2.38 2.38 0 0 1-.88.14c-.33 0-.65-.07-.97-.21a1.94 1.94 0 0 1-.79-.66 1.9 1.9 0 0 1-.3-1.1v-7.6Zm9.37 6.35v-4.52h1.18V21h-1.18v-1.3h-.07a2.5 2.5 0 0 1-.84 1c-.38.27-.86.4-1.43.4-.48 0-.9-.1-1.27-.31a2.2 2.2 0 0 1-.88-.96 3.63 3.63 0 0 1-.32-1.61v-4.86h1.18v4.78c0 .55.15 1 .46 1.33.32.33.72.5 1.2.5a2 2 0 0 0 1.97-2.1Zm6.21 3.28a2.99 2.99 0 0 1-2.83-1.86 5.01 5.01 0 0 1-.41-2.1 5 5 0 0 1 .41-2.09 3.03 3.03 0 0 1 2.85-1.85c.5 0 .89.09 1.18.25.29.17.51.35.67.56l.36.5h.1v-3.75h1.17V21h-1.13v-1.17h-.14l-.37.52c-.16.21-.39.4-.68.57-.3.16-.69.24-1.18.24Zm.16-1.05a2 2 0 0 0 1.2-.37c.32-.25.57-.6.73-1.03.17-.44.26-.95.26-1.53 0-.57-.09-1.07-.25-1.5a1.96 1.96 0 0 0-1.94-1.37c-.5 0-.91.14-1.24.4-.33.24-.58.59-.74 1.02a4.1 4.1 0 0 0-.25 1.45c0 .55.08 1.04.25 1.48.17.44.42.8.75 1.06s.74.39 1.23.39Zm8.85 1.05a3.27 3.27 0 0 1-3.13-1.86 4.68 4.68 0 0 1-.43-2.06c0-.78.15-1.47.43-2.07a3.23 3.23 0 0 1 3.01-1.9c.4 0 .8.06 1.18.2a2.92 2.92 0 0 1 1.82 1.81 5 5 0 0 1 .29 1.8v.5h-5.89v-1.01h4.7c0-.44-.1-.82-.27-1.16a1.95 1.95 0 0 0-1.82-1.1c-.47 0-.88.12-1.22.36-.34.22-.6.52-.78.9-.18.36-.27.75-.27 1.17v.68c0 .58.1 1.07.3 1.47.2.4.48.7.84.9a2.7 2.7 0 0 0 2.08.19c.25-.1.47-.23.65-.4.18-.18.32-.4.42-.67l1.14.32c-.12.38-.32.72-.6 1.01-.29.3-.64.52-1.05.68-.41.16-.88.24-1.4.24Zm6.12-4.75V21h-1.17v-7.64h1.13v1.2h.1c.18-.4.45-.7.82-.94a2.5 2.5 0 0 1 1.41-.36c.52 0 .97.11 1.36.32.39.21.69.53.9.96.22.42.33.96.33 1.6V21h-1.18v-4.77c0-.6-.15-1.07-.46-1.4a1.67 1.67 0 0 0-1.29-.51c-.37 0-.7.08-1 .24-.3.16-.52.4-.7.71-.16.31-.25.7-.25 1.14Zm10.34-3.05v1h-3.96v-1h3.96Zm-2.8-1.83h1.17v7.28c0 .33.05.58.14.75.1.16.23.27.38.33.16.05.32.08.5.08l.31-.02.2-.04.24 1.05a2.33 2.33 0 0 1-.88.14c-.33 0-.65-.07-.97-.21a1.93 1.93 0 0 1-.78-.66 1.83 1.83 0 0 1-.31-1.1v-7.6Z" fill="#0F67F5"/><path d="m153.12 16.3-.35-.35-.35.36-3.33 3.33a.12.12 0 0 1-.09.03.12.12 0 0 1-.09-.03.12.12 0 0 1-.03-.09c0-.04.01-.07.03-.09l3.33-3.33.36-.35-.36-.35-3.33-3.33a.12.12 0 0 1-.03-.09c0-.04.01-.07.03-.09a.12.12 0 0 1 .09-.03c.04 0 .07.01.09.03l3.33 3.33.35.36.35-.36 3.33-3.33a.12.12 0 0 1 .09-.03c.04 0 .07.01.09.03.02.02.03.05.03.09 0 .04-.01.07-.03.09l-3.33 3.33-.36.35.36.35 3.33 3.33c.02.02.03.05.03.09 0 .04-.01.07-.03.09a.12.12 0 0 1-.09.03.12.12 0 0 1-.09-.03l-3.33-3.33Z" fill="#0F67F5" stroke="#757575"/><rect x=".5" y=".5" width="172" height="31" rx="3.5" stroke="#0F67F5"/></svg>
